Extension/src/pages/assets/icons/language-specific.svg

<?xml version="1.0" encoding="UTF-8"?>
<svg width="61px" height="61px" viewBox="0 0 61 61" version="1.1" xmlns="http://www.w3.org/2000/svg" xmlns:xlink="http://www.w3.org/1999/xlink">
    <!-- Generator: Sketch 51.3 (57544) - http://www.bohemiancoding.com/sketch -->
    <title>download (1)</title>
    <desc>Created with Sketch.</desc>
    <defs></defs>
    <g id="Page-1" stroke="none" stroke-width="1" fill="none" fill-rule="evenodd">
        <g id="download-(1)" transform="translate(0.000000, -0.500000)">
            <rect id="Rectangle" fill="#7678B8" fill-rule="nonzero" x="0.490500256" y="0.933153209" width="60" height="60" rx="4"></rect>
            <g id="Group-17" transform="translate(14.990500, 16.000000)">
                <g id="Oval-3" stroke="#FFFFFF" stroke-width="2">
                    <circle id="path-1" cx="15.8666373" cy="15.2334471" r="14.8813725"></circle>
                </g>
                <g id="Path-Clipped">
                    <circle id="path-1" cx="15.8666373" cy="15.2334471" r="14.8813725"></circle>
                    <path d="M6.76164537,2.25850058 C6.93241318,2.15064723 7.10529575,2.04649473 7.27976441,1.94604308 C7.37651521,1.89000163 7.47220862,1.8323741 7.5705455,1.77844743 C7.815859,1.64415943 8.06487336,1.51885922 8.31653117,1.39937462 C8.42544191,1.34756272 8.53541003,1.29945167 8.64590685,1.25028323 C8.83042067,1.16833583 9.01599187,1.09061798 9.20314916,1.01607228 C9.30624427,0.974834231 9.40881069,0.932010107 9.51349188,0.893415526 C9.78101049,0.794021262 10.0517012,0.703086084 10.3245068,0.6200813 C10.4244297,0.589417112 10.5264675,0.562453775 10.6274478,0.533904358 C10.8394537,0.474162061 11.0525169,0.418649308 11.2676949,0.368423483 C11.363917,0.345689688 11.4601391,0.321898508 11.5568899,0.301279485 C11.8524292,0.238365031 12.1500833,0.18338097 12.4498522,0.138442074 C12.5180536,0.128396909 12.5873124,0.121523902 12.6555137,0.11200743 C12.908229,0.0781710844 13.1625302,0.050679054 13.4178889,0.0295313382 C13.5067093,0.0221296377 13.5960584,0.0147279372 13.6854075,0.00891231539 C14.0042093,-0.0101206288 14.3235398,-0.0243953369 14.6449851,-0.0243953369 C14.9246636,-0.0243953369 15.2038135,-0.0148788648 15.481906,0.000981921986 C15.5617386,0.00521146513 15.6405138,0.0131418585 15.7198178,0.0189574804 C15.9201924,0.0337608814 16.120567,0.050679054 16.3198842,0.0734128484 C16.4081759,0.0834580133 16.4959389,0.0956179499 16.5837019,0.107249194 C16.7766749,0.132626452 16.9685904,0.161175869 17.1599772,0.194483521 C17.2450968,0.209286922 17.3296876,0.224090323 17.4142785,0.23995111 C17.6135957,0.278016998 17.8118555,0.320841122 18.009058,0.366837404 C18.0820176,0.383755577 18.1555059,0.399616364 18.2279368,0.417591922 C18.4711356,0.478391605 18.7127482,0.545006909 18.9522461,0.617966528 C18.976566,0.625368229 19.0014145,0.631183851 19.0257344,0.638585551 C19.2816218,0.717889485 19.534337,0.805652506 19.7854661,0.898173762 C19.8859178,0.935710957 19.9842546,0.97642031 20.0836489,1.01607228 C20.2295681,1.0736998 20.37443,1.13238471 20.5187632,1.19477048 C20.6435347,1.24922584 20.7672488,1.30526729 20.8904343,1.36289482 C21.0014598,1.41470672 21.1114279,1.4681047 21.221396,1.52256007 C21.3017573,1.56168334 21.3821186,1.60345008 21.4619513,1.64521682 C19.441287,2.45517433 18.1861701,3.44753089 16.7814331,5.27522223 C16.5821159,5.53375305 16.4811355,5.85044009 16.4901233,6.16659844 C16.3690526,5.87475997 16.1914118,5.65270895 15.9545574,5.49727324 C15.4649878,5.17582796 14.824212,5.19856176 13.9968076,5.5675894 L13.8461301,5.58450757 C12.7855722,5.70293478 12.2013666,5.76849269 12.1484973,6.92210059 C12.1215339,7.50577754 12.4345201,8.0820528 12.9457661,8.38975206 C13.0752959,8.46746992 13.21117,8.52404005 13.3496875,8.55840509 C13.3644909,8.60863092 13.3877534,8.65991413 13.4221184,8.71172603 L13.6351817,9.00620797 L13.9751312,8.94963783 C14.2659123,8.90046939 14.5101684,8.88989554 14.6756493,8.89465377 C14.6508007,9.12939342 14.6920388,9.36941999 14.7977774,9.58354061 C14.944754,9.88066602 15.1974692,10.0974301 15.509398,10.1936522 C15.8075808,10.2856448 15.8334867,10.3749939 15.8694378,10.4981793 C16.0391483,11.082385 16.4250941,11.5143271 16.9284097,11.6819227 C17.4095202,11.843174 17.9440288,11.7390215 18.3971186,11.399072 C18.6688667,11.1934105 18.8227163,11.2362346 19.4164385,11.5233148 C19.8039704,11.7104721 20.286667,11.9441544 20.911582,12.0245157 C21.0099188,12.0366756 21.0686038,12.0662824 21.0902802,12.0890162 C21.5201075,12.54052 21.8500119,13.1019918 22.1688137,13.6449594 C22.6573259,14.4765933 23.1188748,15.2627597 23.9129715,15.6746114 C24.5341857,15.9976428 23.8384258,17.8211046 23.5048206,18.6971487 C23.4376766,18.8737321 23.3747622,19.0381556 23.3224216,19.1851322 C22.5166936,19.8058177 22.0244805,20.5105653 21.5481282,21.1925792 C21.121473,21.8032195 20.6805432,22.4350075 19.9969433,23.022914 C18.964406,23.9116467 18.0910054,24.4440405 17.0769724,24.804609 C16.9104342,24.8632939 16.8020521,24.7644284 16.7629288,24.7184321 C16.7259203,24.6750793 16.6487312,24.5571807 16.7312073,24.4096754 C17.7743183,22.5423321 18.9807955,19.9089128 17.4190367,18.6162587 C15.8879421,17.3495105 15.314839,15.5101879 15.9577296,13.931511 C16.2310638,13.2611284 15.926008,12.5093271 15.2508672,12.1561602 C15.1932396,12.0858441 15.1520016,11.7786735 15.1250383,11.5751267 C15.065296,11.1283812 14.991279,10.572725 14.6608459,10.0879136 C14.5233857,9.88701033 14.2770149,9.70566867 14.1073044,9.62319258 C13.4617704,9.30703423 12.8421423,9.21662774 12.2431333,9.12992211 C11.7662523,9.06013465 11.3152773,8.99457673 10.8553144,8.818522 C9.10375489,8.14655333 7.85709705,5.30482903 6.94668789,3.22918073 C6.81662943,2.93205532 6.69132922,2.64708985 6.57078724,2.38009994 C6.63370169,2.33991928 6.69767353,2.29920993 6.76164537,2.25850058 Z" id="Path" stroke="#FFFFFF" stroke-width="2"></path>
                </g>
            </g>
        </g>
    </g>
</svg>

<svg height="61" viewBox="0 0 61 61" width="61" xmlns="http://www.w3.org/2000/svg"><g fill="none" fill-rule="evenodd"><rect fill="#7678b8" fill-rule="nonzero" height="60" rx="4" width="60" x=".4905" y=".433153"/><circle cx="30.857137" cy="30.733447" r="14.881373" stroke="#fff" stroke-width="2"/><g transform="translate(14.9905 15.5)"><circle cx="15.866637" cy="15.233447" r="14.881373"/><path d="m6.76164537 2.25850058c.17076781-.10785335.34365038-.21200585.51811904-.3124575.0967508-.05604145.19244421-.11366898.29078109-.16759565.2453135-.134288.49432786-.25958821.74598567-.37907281.10891074-.0518119.21887886-.09992295.32937568-.14909139.18451382-.0819474.37008502-.15966525.55724231-.23421095.10309511-.04123805.20566153-.08406217.31034272-.12265675.26751861-.09939427.53820932-.19032945.81101492-.27333423.0999229-.03066419.2019607-.05762752.302941-.08617694.2120059-.0597423.4250691-.11525505.6402471-.16548088.0962221-.02273379.1924442-.04652497.289195-.06714399.2955393-.06291446.5931934-.11789852.8929623-.16283742.0682014-.01004516.1374602-.01691817.2056615-.02643464.2527153-.03383635.5070165-.06132838.7623752-.08247609.0888204-.0074017.1781695-.0148034.2675186-.02061902.3188018-.01903295.6381323-.03330766.9595776-.03330766.2796785 0 .5588284.00951648.8369209.02537726.0798326.00422955.1586078.01215994.2379118.01797556.2003746.0148034.4007492.03172157.6000664.05445537.0882917.01004516.1760547.0222051.2638177.03383634.192973.02537726.3848885.05392668.5762753.08723433.0851196.0148034.1697104.0296068.2543013.04546759.1993172.03806589.397577.08089001.5947795.12688629.0729596.01691818.1464479.03277896.2188788.05075452.2431988.06079969.4848114.12741499.7243093.20037461.0243199.0074017.0491684.01321732.0734883.02061902.2558874.07930394.5086026.16706696.7597317.25958821.1004517.0375372.1987885.07824655.2981828.11789852.1459192.05762752.2907811.11631243.4351143.1786982.1247715.05445536.2484856.11049681.3716711.16812434.1110255.0518119.2209936.10520988.3309617.15966525.0803613.03912327.1607226.08089001.2405553.12265675-2.0206643.80995751-3.2757812 1.80231407-4.6805182 3.63000541-.1993172.25853082-.3002976.57521786-.2913098.89137621-.1210707-.29183847-.2987115-.51388949-.5355659-.6693252-.4895696-.32144528-1.1303454-.29871148-1.9577498.07031616l-.1506775.01691817c-1.0605579.11842721-1.6447635.18398512-1.6976328 1.33759302-.0269634.58367695.2860228 1.15995221.7972688 1.46765147.1295298.07771786.2654039.13428799.4039214.16865303.0148034.05022583.0380659.10150904.0724309.15332094l.2130633.29448194.3399495-.05657014c.2907811-.04916844.5350372-.05974229.7005181-.05498406-.0248486.23473965.0163895.47476622.1221281.68888684.1469766.29712541.3996918.51388949.7116206.61011159.2981828.0919926.3240887.1813417.3600398.3045271.1697105.5842057.5556563 1.0161478 1.0589719 1.1837434.4811105.1612513 1.0156191.0570988 1.4687089-.2828507.2717481-.2056615.4255977-.1628374 1.0193199.1242428.3875319.1871573.8702285.4208396 1.4951435.5012009.0983368.0121599.1570218.0417667.1786982.0645005.4298273.4515038.7597317 1.0129756 1.0785335 1.5559432.4885122.8316339.9500611 1.6178003 1.7441578 2.029652.6212142.3230314-.0745457 2.1464932-.4081509 3.0225373-.067144.1765834-.1300584.3410069-.182399.4879835-.805728.6206855-1.2979411 1.3254331-1.7742934 2.007447-.4266552.6106403-.867585 1.2424283-1.5511849 1.8303348-1.0325373.8887327-1.9059379 1.4211265-2.9199709 1.781695-.1665382.0586849-.2749203-.0401806-.3140436-.0861769-.0370085-.0433528-.1141976-.1612514-.0317215-.3087567 1.043111-1.8673433 2.2495882-4.5007626.6878294-5.7934167-1.5310946-1.2667482-2.1041977-3.1060708-1.4613071-4.6847477.2733342-.6703826-.0317216-1.4221839-.7068624-1.7753508-.0576276-.0703161-.0988656-.3774867-.1258289-.5810335-.0597423-.4467455-.1337593-1.0024017-.4641924-1.4872131-.1374602-.20090327-.383831-.38224493-.5535415-.46472102-.645534-.31615835-1.2651621-.40656484-1.8641711-.49327047-.476881-.06978746-.927856-.13534538-1.3878189-.31140011-1.75155951-.67196867-2.99821735-3.51369297-3.90862651-5.58934127-.13005846-.29712541-.25535867-.58209088-.37590065-.84908079.06291445-.04018066.12688629-.08089001.19085813-.12159936z" stroke="#fff" stroke-width="2"/></g></g></svg>
